.local/share/icons/Gruvbox-Plus-Dark/panel/24/webtorrent-desktop-panel.svg

<svg xmlns="http://www.w3.org/2000/svg" width="24" height="24" version="1.1">
 <defs>
  <style id="current-color-scheme" type="text/css">
   .ColorScheme-Text { color:#ebdbb2; } .ColorScheme-Highlight { color:#458588; }
  </style>
 </defs>
 <path style="fill:currentColor" class="ColorScheme-Text" d="M 11.544922,4.0004268 A 1.9023651,1.8191537 0 0 0 10.548828,4.2426143 L 4.9511722,7.3344111 A 1.9023651,1.8191537 0 0 0 4.0000002,8.9105829 V 15.09027 a 1.9023651,1.8191537 0 0 0 0.951172,1.576172 l 5.5976558,3.089843 a 1.9023651,1.8191537 0 0 0 1.902344,0 l 5.597656,-3.089843 A 1.9023651,1.8191537 0 0 0 19,15.09027 V 8.9105829 A 1.9023651,1.8191537 0 0 0 18.048828,7.3344111 L 12.451172,4.2426143 A 1.9023651,1.8191537 0 0 0 11.544922,4.0004268 Z M 11.5,6.0004267 17,9.0394894 V 14.95941 L 11.5,18.000426 6.0000002,14.95941 V 9.0394894 Z m -1.480469,2.9999997 c -1.1153528,0 -2.0195308,1.0295726 -2.0195308,2.2988276 0,1.979326 3.1111108,3.534505 3.4999998,4.701172 0.388889,-1.166667 3.5,-2.721846 3.5,-4.701172 0,-1.269255 -0.904178,-2.2988276 -2.019531,-2.2988276 -0.584942,0 -1.11155,0.356359 -1.480469,0.808594 -0.368919,-0.452235 -0.895528,-0.808594 -1.480469,-0.808594 z"/>
</svg>

<svg width="24" height="24" version="1.1" xmlns="http://www.w3.org/2000/svg">
  <defs>
    <style id="current-color-scheme" type="text/css">.ColorScheme-Text { color:#ebdbb2; } .ColorScheme-Highlight { color:#458588; } .ColorScheme-NeutralText { color:#fe8019; } .ColorScheme-PositiveText { color:#689d6a; } .ColorScheme-NegativeText { color:#fb4934; }</style>
  </defs>
  <path class="ColorScheme-Text" d="m11.54 4a1.902 1.819 0 0 0-0.9961 0.2422l-5.598 3.092a1.902 1.819 0 0 0-0.9512 1.576v6.18a1.902 1.819 0 0 0 0.9512 1.576l5.598 3.09a1.902 1.819 0 0 0 1.902 0l5.598-3.09a1.902 1.819 0 0 0 0.9512-1.576v-6.18a1.902 1.819 0 0 0-0.9512-1.576l-5.598-3.092a1.902 1.819 0 0 0-0.9062-0.2422zm-0.04492 2 5.5 3.039v5.92l-5.5 3.041-5.5-3.041v-5.92zm-1.48 3c-1.115 0-2.02 1.03-2.02 2.299 0 1.979 3.111 3.535 3.5 4.701 0.3889-1.167 3.5-2.722 3.5-4.701 0-1.269-0.9042-2.299-2.02-2.299-0.5849 0-1.112 0.3564-1.48 0.8086-0.3689-0.4522-0.8955-0.8086-1.48-0.8086z" fill="currentColor"/>
</svg>
